X: 5074
T: Bride's Favourite, The
R: jig
M: 6/8
K: Gmajor
|:~G3 BAB|GBd gdB|AFA cBA|GBd gdB|
~G3 ~BAB|GBd gdB|AFA cBA|1 GFA G2 D:|2 GFA GBd||
|:g2 a f2 a|gdB GBd|gfe fed|egf e2 f|
g2 a f2 a|gdB GAB|AFA cBA|1 GFA GBd:|2 GFA G2 D||
GBd gfg|edc BcA|GBd ~g3|eaf g2 a|
bgb afa|geg fdf|ed^c def|gaf gdB:|

